img/svg/alarm-clock-ico.svg

<svg width="16" height="16" viewBox="0 0 16 16" fill="none" xmlns="http://www.w3.org/2000/svg">
<rect width="16" height="16" fill="white"/>
<path d="M14.2134 10.4936C14.1788 10.48 13.6913 10.2836 13.333 9.83288C13.1182 9.56269 12.725 9.51784 12.4548 9.73263C12.1846 9.94747 12.1397 10.3406 12.3545 10.6108C12.6776 11.0172 13.0533 11.2875 13.3402 11.4535C13.2922 11.7227 13.191 12.0235 13.0138 12.2788C12.7355 12.68 12.3424 12.875 11.8122 12.875H4.18781C3.22119 12.875 2.78988 12.0651 2.66519 11.4502C2.84969 11.3434 3.07109 11.1942 3.293 10.9945C4.00084 10.3577 4.375 9.51672 4.375 8.5625V6.375C4.375 4.40275 5.97372 2.77672 7.93884 2.75034C7.94428 2.75028 7.94956 2.74953 7.95497 2.74931C7.95959 2.74941 7.96409 2.75 7.96875 2.75C7.98522 2.75 8.00141 2.74878 8.01756 2.74753C8.03203 2.74872 8.04644 2.75013 8.06116 2.75031C10.0435 2.77694 11.6562 4.40297 11.6562 6.375V7.25C11.6562 7.59519 11.9361 7.875 12.2812 7.875C12.6264 7.875 12.9062 7.59519 12.9062 7.25V6.375C12.9062 3.89647 11.0144 1.82466 8.59375 1.53488V0.625C8.59375 0.279813 8.31394 0 7.96875 0C7.62356 0 7.34375 0.279813 7.34375 0.625V1.54266C6.27953 1.68394 5.29572 2.17366 4.52794 2.95419C3.62322 3.87384 3.125 5.08872 3.125 6.375V8.5625C3.125 9.95819 1.86753 10.4626 1.7865 10.4936C1.53534 10.581 1.375 10.815 1.375 11.0811C1.375 11.737 1.60869 12.4542 2.00009 12.9996C2.521 13.7253 3.29797 14.125 4.18781 14.125H6.125C6.125 15.1589 6.96613 16 8 16C9.03387 16 9.875 15.1589 9.875 14.125H11.8122C13.0041 14.125 13.682 13.5085 14.0408 12.9914C14.5681 12.2315 14.625 11.4023 14.625 11.0811C14.625 10.8148 14.4647 10.5809 14.2134 10.4936ZM8 14.75C7.65538 14.75 7.375 14.4696 7.375 14.125H8.625C8.625 14.4696 8.34462 14.75 8 14.75Z" fill="#4C51CC"/>
</svg>

<svg width="16" height="16" fill="none" xmlns="http://www.w3.org/2000/svg"><path fill="#fff" d="M0 0h16v16H0z"/><path d="M14.213 10.494a2.31 2.31 0 01-.88-.661.625.625 0 00-.979.778c.324.406.7.676.986.842-.048.27-.149.57-.326.826-.278.401-.672.596-1.202.596H4.188c-.967 0-1.398-.81-1.523-1.425.185-.107.406-.256.628-.455a3.19 3.19 0 001.082-2.432V6.374c0-1.972 1.599-3.598 3.564-3.625h.03a.63.63 0 00.049-.002l.043.002c1.982.027 3.595 1.653 3.595 3.625v.875a.625.625 0 001.25 0v-.875c0-2.479-1.892-4.55-4.312-4.84v-.91a.625.625 0 10-1.25 0v.918a4.827 4.827 0 00-2.816 1.411 4.851 4.851 0 00-1.403 3.421v2.188c0 1.395-1.257 1.9-1.339 1.93a.614.614 0 00-.411.588c0 .656.234 1.373.625 1.919a2.63 2.63 0 002.188 1.125h1.937C6.125 15.159 6.966 16 8 16a1.877 1.877 0 001.875-1.875h1.937c1.192 0 1.87-.617 2.229-1.134.527-.76.584-1.589.584-1.91 0-.266-.16-.5-.412-.587zM8 14.75a.626.626 0 01-.625-.625h1.25c0 .345-.28.625-.625.625z" fill="#4C51CC"/></svg>
